X: 689
T: Planxty Wilkinson
C:O'Carolan
B:O'Neill's 689
Z: 1997 by John Chambers <jc@trillian.mit.edu>
N:"Spirited"
N:Bar 12 clearly has incorrect note values.
M:6/8
L:1/8
K:Gm
(G/F/) \
| DGG Bcd/=e/ | f2F FAc | (~d2c) (~B2A) | (~G2F) DCC |
| DGG Bcd/=e/ | fed cBA | BAG (^F>GA/c/) | B2G G2 ||
(A/G/) \
| Fff fa/g/f/d/ | cAG F>GA | Gg^f gab | g>f=e/f/ d2(d/=e/^f/g/) |
| a2F FAc | fed cBA | BAG (^F>GA/c/) | B2G G2 |]


